X:2026
T:Butterfly, The
R:Slipjig
C:Trad.
O:Ireland
M:9/8
L:1/8
Q:1/8=240
K:Em
"Em"B2E G2E "D"F3|"Em"B2E G2E "D"FED|"Em"B2E G2E "D"F3|"G"B2d d2B "D"AFD:|
|:"Em"B2c e2f g3|B2c g2e "D"dBA|"Em"B2c e2f g2a|"G"b2a g2e "D"dBA:|
|:"Em"B>cB B2A G2A|B>cB BAB "D"dBA|"Em"B>cB B2A G2A|"G"B2d g2e "D"dBA:|
% --------------------------------- C --------------------------------------

